X:1
T:Phalia
T:A minor                    Merit Woodruff, 1800
T:Transcribed from Devotional Harmony, 1800.
T:Anonymous Author Apparently unique to Devotional Harmony, 1800
%%score [ 1 2 3 4 ]
L:1/8
Q:1/4=110
M:4/4
K:C
V:1 treble nm="Tr." snm="Tr."
V:2 treble nm="C." snm="C."
V:3 treble-8 nm="T." snm="T."
V:4 bass nm="B." snm="B."
V:1
"_In pleasure's flowery path to stray  Our fond desires in  –  dulge;  Un–mind–ful  of  the  happy way  Which leads to  joys  di   – vine,                    Un – mind–ful  of the" A4 c2 B2 | %1
 A2 G2 c2 A2 | G6 G2 | A3 c B2 A2 | B6 ce | d2 e2 A2 c2 | B2 A2 G3 B | c2 Bc A2 G2 | A6 ce | %9
 d2 e2 A2 c2 | %10
"_happy way  Which leads to joys di  – vine. ___________________  Of lengthy  days  we  vain – ly     dream   Of   nume–rous  years to come,  Till death destroys our ai–ry" B2 A2 G3 B | %11
 c2 Bc A2 G2 | A8- | A8 | z4 A2 c A | G2 B2 ec d2 | e6 EF | G2 A2 e2 dc | B4 c2 c B | A2 c2 B2 A2 | %20
"_schemes And drops us in the tomb.  Till  death de    –    stroys   our   ai – ry  schemes,  And drops us in  the  tomb.                             Till  death destroys  our    ai      –      ry" G6 c2 | %21
 B2 A2 G2 G2 | A8 | z4 A4 | (A2 c2) (c2 A2) | (G2 B2) (A2 c2) | B2 A2 B4- | B4 e4 | c2 c2 c2 df | %29
 e8 | z8 | z8 | z4 c4 | B4 A4 | e6 ed | c6 c2 | %36
"_schemes,   And  drops  us  in  the  tomb.                                                                   And drops us in  the tomb,      And drops,     And  drops  us       in                       the   tomb." B6 B2 | %37
 c3 E G2 B2 | A6 z2 | z8 | z8 | z4 z2 A2 | e2 e2 e2 e2 | d4 z2 e2 | (c2 B2) z2 c2 | %45
 BG cf e/>f/e/d/c B | A8 |] %47
V:2
"_In pleasure's flowery path to stray  Our fond desires in  –  dulge;                              Un–mind–ful  of  the   hap –py  way  Which leads   to     joys  di   –  vine,           Un –" E4 E2 E2 | %1
 E2 G2 A2 E2 | E6 E2 | F3 D G3 A | G6 z2 | z4 z2 EA | G2 E2 E2 D2 | G2 A2 G3 F | ED CD E2 E2 | %9
 E6 EA | %10
"_–mind–ful of the  hap – py  way  Which  leads  to  joys di –vine.         Of lengthy  days  we  vain – ly     dream   Of   nume–rous  years to come,  Till death destroys our ai–ry" G2 E2 E2 D2 | %11
 G2 A2 G3 F | ED CD E2 E2 | E8 | z4 E2 E G | G2 E2 A2 BA | G6 G2 | G2 A2 E2 DF | E4 G2 A F | %19
 G2 G2 G2 F2 | %20
"_schemes And drops us in the tomb.  Till  death de    –    stroys   our   ai – ry  schemes,  And drops us in  the  tomb.                                             Till  death de    –    stroys   our" E6 E2 | %21
 F2 D2 E2 E2 | E8 | z4 E4 | (A2 E2) (E2 A2) | (G2 E2) (E2 C2) | D2 EF G4- | G4 E4 | G2 E2 A2 A2 | %29
 E8 | z8 | z8 | z8 | z4 E4 | G6 G2 | A6 A2 | %36
"_airy schemes, And drops us in the tomb.                                           And drops us in  the tomb,     And drops us in  the tomb.    And  drops  us       in                       the   tomb." G2 G2 G2 F2 | %37
 E3 F E2 E2 | E6 z2 | z8 | z4 z2 C2 | G2 G2 G2 E2 | G4 z2 E2 | F2 D2 E2 F2 | E4 z2 E2 | %45
 E2 A2 G>FE E | E8 |] %47
V:3
"_In pleasure's flowery path to stray  Our fond desires in  –  dulge;                              Un–mind–ful  of  the   hap –py  way  Which leads   to     joys  di   –  vine,           Un –" E4 A2 G2 | %1
 c2 B2 A2 c2 | B6 c2 | d3 c B2 cd | e6 z2 | z4 z2 ce | d2 c2 B2 A2 | e2 df e3 d | c2 Bc A2 G2 | %9
 A6 ce | %10
"_–mind–ful of the  hap – py  way  Which  leads  to  joys di –vine.         Of lengthy  days  we  vain – ly     dream   Of   nume–rous  years to come,  Till death destroys our ai–ry" d2 c2 B2 A2 | %11
 e2 df e3 d | c2 Bc A2 G2 | A8 | z4 A2 A c | B2 A2 c2 BA | B6 B2 | cd ef g2 f2 | e4 e2 e d | %19
 c2 e2 d2 c2 | %20
"_schemes And drops us in the tomb.  Till  death de    –    stroys   our   ai – ry  schemes,  And drops us in the tomb.  Till death destroys our airy schemes, And drops us in, And" B6 e2 | %21
 d2 c2 BA G2 | A8 | z4 A4 | (e2 c2) (A2 c2) | (B2 G2) (c2 A2) | d2 cd e4- | e4 c4 | e2 c2 A2 A2 | %29
 B8 | z4 c4 | A4 c4 | B4 e4 | d4 c4 | B6 A2 | e3 d c2 e2 | %36
"_drops us in, And drops us in the tomb.                     And drops us in  the tomb,     And drops us in  the tomb.      And drops,    And  drops   us       in                       the   tomb." d3 c B2 d2 | %37
 c3 A B2 G2 | E6 z2 | z4 z2 A2 | e2 e2 e2 e2 | d4 z2 d2 | c2 c2 c2 c2 | B4 z2 c2 | (A2 B2) z2 c2 | %45
 G2 A2 E>DC E | A8 |] %47
V:4
"_In pleasure's flowery path to stray  Our fond desires in  –  dulge;  Un–mind–ful  of  the  happy way  Which leads to  joys  di   – vine,                    Un – mind–ful  of  the" A,,4 A,,2 E,2 | %1
 C,2 E,2 A,2 A,2 | E,6 E,2 | D,3 D, G,2 F,2 | E,6 E,A, | G,2 E,2 D,2 C,2 | G,2 A,2 E,3 D, | %7
 C,2 D,2 E,2 E,2 | A,,6 E,A, | G,2 E,2 D,2 C,2 | %10
"_happy way  Which leads to joys di  – vine. ___________________  Of lengthy  days  we  vain – ly     dream   Of   nume–rous  years to come,  Till death destroys our ai–ry" G,2 A,2 E,3 D, | %11
 C,2 D,2 E,2 E,2 | A,,8- | A,,8 | z4 A,,2 A,, E, | E,2 E,2 E,A, G,F, | E,6 E,D, | %17
 C,2 A,,2 C,2 D,2 | E,4 E,2 A, B, | C2 C2 G,2 A,2 | %20
"_schemes And drops us in the tomb.  Till  death de    –    stroys   our   ai – ry  schemes,  And drops us in  the  tomb.                Till death destroys our  ai – ry  schemes,      And" E,6 C,2 | %21
 D,2 F,2 E,2 E,2 | A,,8 | z4 A,,4 | A,,4 A,,4 | E,4 A,4 | G,2 F,2 E,4- | E,4 E,4 | %28
 E,2 A,,2 F,2 D,2 | E,8 | z8 | z4 A,4 | E,4 C,4 | G,4 A,4 | E,6 E,2 | A,6 E,2 | %36
"_drops us in, And drops us in the tomb. And drops us in the tomb,  And drops us in the tomb.      And drops us in the tomb,    And  drops   us       in                       the   tomb." G,3 G, G,2 A,2 | %37
"_________________________________________________________________________________________\nEdited by B. C. Johnston, 2018\n As written, measures 6-14 are five measures with repeat marks in different places for different parts,\n       such that the parts would be singing different measures at the same time. In this edition, the repeats\n       are expanded, so that all parts sing all measures at the same time." C,3 D, E,2 E,2 | %38
 A,,6 A,,2 | E,2 E,2 E,2 E,2 | A,4 z2 E,2 | G,2 G,2 G,2 G,2 | C,4 z2 A,,2 | B,,2 B,,2 A,,2 A,,2 | %44
 E,4 z2 E,2 | E,2 F,D, E,3 E, | A,,8 |] %47

